!!!!SEGMENT: pl-kozmzk--mzk-m-159--021_walczynski-franciszek--praeludia-organi-op-5-largo.krn
!!!cenid: 18xx:2764
!!!COM: Walczyński, Franciszek
!!!COM-rismid: pe30021989
!!!CDT: ~1852-1937
!!!CNT: Polish
!!!GTL: Praeludia organi op. 5
!!!OTL: 21. Largo
!!!PDT: 1894
!!!AGN: Secular; Prelude
!!!SMS-siglum: PL-KOZmzk
!!!SMS-shelfmark: mzk/m/159
!!!SMS-shelfwork: 021 G
!!!SMS-variant:
!!!SMS-altvar:
!!!NIFC-rismid: 1001116723
!!!URL-scan: https://repozytorium.nifc.pl/islandora/object/pl-kozmzk%3A2265/datastream/PDF/view
!!!ONB-nifc: UWAGA: numeracja plików zgodna z numeracją źrodłową
!!!OMD: 21. Largo.
!!!key:
**kern	**kern	**dynam
*part2	*part1	*part1
*staff2	*staff1	*
*Iorgan	*Iempty	*
*I"[Organo]	*	*
*clefF4	*clefG2	*
*k[f#c#g#]	*k[f#c#g#]	*
*f#:	*f#:	*
*M4/4	*M4/4	*
*met(c)	*met(c)	*
=1	=1	=1
*^	*^	*
(4.F#/	1r	1rg	1r	f
8E#X/	.	.	.	.
8F#/L	.	.	.	.
8A/	.	.	.	.
8c#/	.	.	.	.
8f#/J	.	.	.	.
=2	=2	=2	=2	=2
2.a/	1r	1rg	1r	>
4g#/)	.	.	.	.
=3	=3	=3	=3	=3
!	!	!	!	!LO:DY:a
(2f#/	1r	2cc#/	2a\	] pp
4e#X/	.	(4cc#'/	4g#\	.
4en/	.	4cc#'/)	4gn\	.
=4	=4	=4	=4	=4
1d/)	1r	(4.cc#/	1f#\	<
.	.	8b/	.	.
.	.	4a/	.	.
.	.	4b/	.	[[
=5	=5	=5	=5	=5
1c#/	4r	1cc#/);	1e#X\	ff
!LO:TX:b:i:t=Ped.	!	!	!	!LO:DY:b=2
.	4C#\	.	.	p
.	2C#;\	.	.	.
=6	=6	=6	=6	=6
!	!	!	!	!LO:DY:b=2
1r	4.C#\	1r	1r	p
.	(8BB#X\	.	.	.
.	8C#\L	.	.	.
.	8E#X\	.	.	.
.	8G#\	.	.	.
.	8B\J	.	.	.
=7	=7	=7	=7	=7
!	!	!	!	!LO:HP:b=2
1r	2.d\	1r	1r	>
.	4c#\)	.	.	]
=8	=8	=8	=8	=8
2d/	2B\	(2b/	2g#\	p
4c#/	4c#\	4a/	2f#\	.
4c#/	4C#\	4g#/	.	.
=9	=9	=9	=9	=9
*	*	*	*	*^
1B/	1C#\	1g#/^	1e#X\	>	.
=10	=10	=10	=10	=10	=10
1A/	1F#\;	1f#/;)	1f#\	.	pp
=11	=11	=11	=11	=11	=11
!	!	!	!	!LO:HP:b=2	!
(<4.B^/	4.B\	(4.b^/	4.b\	] >	ff <
8A/	8A\	8a/	8a\	]	.
8G#/L	8G#\L	8g#/L	8g#\L	.	.
8B/	8B\	8b/	8b\	.	.
8d/	8d\	8dd/	8dd\	.	.
8e#X/J	8e#\J	8ee#X/J	8ee#\J	.	[
*	*	*	*	*v	*v
=12	=12	=12	=12	=12
2f#/)	2f#\	2ff#/)	2ff#\	[ fff
4r;	4ryy	4r;	4ryy	.
!LO:TX:b:i:t=Ped.	!	!	!	!
8F#/L	8F#\L	8f#'/L	8f#\L	pp
8d/J	8BB\J	8g#'/J	8f#\J	.
=13	=13	=13	=13	=13
*	*	*	*	*^
(2.c#/	1C#\	2a/	2.f#\	<	.
.	.	2g#/	.	[	>
[4B/	.	.	4e#X\	.	.
=14	=14	=14	=14	=14	=14
!	!	!	!	!LO:DY:b=2	!
4B/]	1FF#\;	1f#/;	1c#\	ppp	.
8A#X/L	.	.	.	.	]
8G#/J	.	.	.	.	.
2A#/)	.	.	.	.	.
*	*	*	*	*v	*v
*v	*v	*	*	*
*	*v	*v	*
==	==	==
*-	*-	*-
!!!system-decoration: {(s1,s2)}
!!!EED: Andrzej Borzym
!!!EST: 2021-08-08
!!!RDF**kern: > = above
!!!RDF**kern: < = below
!!!AIN: 1 empty 1 organ
!!!ENC: Krzysztof Stępień
!!!END: 2021-07-26
